X:1
T:Habanera
T:Habanera
T:Carmen
T:Georges Bizet
C:Georges Bizet
%%score 1 2 3
L:1/8
Q:1/4=72
M:2/4
K:Eb
V:1 treble nm="Soprano" snm="S."
V:2 treble nm="Mezzo-soprano" snm="Mzs."
V:3 treble nm="Contre-alto" snm="Contr."
V:1
"^\nAllegro quasi andantino" z4 |: z4 | z4 | z4 | z4 | z4 | z4 | z4 | z4 | z4 | z4 | z4 | z4 | z4 | %14
w: ||||||||||||||
w: ||||||||||||||
 z4 | z4 | z4 | z4 | z4 |[K:C] z2"^legg.""_legg.""_legg." cB | (3_BBB A_A | GG/G/ ^F=F | %22
w: |||||L’a- mour|est un oi- seau re-|bel- le que nul ne|
w: |||||Tout au-|tour de toi, vi- te,|vi- te Il vient, s’en|
 E(D/E/) FE | D z cB | (3_BBB A_A | GG/G/ FE | D(C/D/) ED | C z z2 | z4 | z4 | z4 | z4 | z4 | z4 | %34
w: peut ap _ pri- voi-|ser, Et c’est|bien en vain qu’on l’ap-|pel- le s’il lui con-|vient de _ re- fu-|ser!|||||||
w: va, puis _ il re-|vient, Tu crois|le te- nir, il t’é-|vi- te, Tu crois l’é-|vi- ter, _ il te|tient!|||||||
 z4 |!f! z3/2 G/ cd | e z z2 | z4 | z4 |!f! z3/2 A/ de | f z z2 | z4 | z4 |!mf! z3/2 G/ CD | %44
w: |Prends garde à|toi!|||Prends garde à|toi!|||L’a- mour est|
w: ||||||||||
 E>G ED | C>D EF | G/G/G/G/ AG | F z/ A/ DE | F>A FE | D>E FG | A/A/A/A/ BA | G z/!f! G/ cd | %52
w: en- fant de Bo-|hême, Il n’a ja-|mais, ja- mais con- nu de|loi, Si tu ne|m’ai- mes pas, je|t’ai _ me, Si|je t’ai- me, prends garde à|toi. Prends garde à|
w: ||||||||
 e z z2 | z4 | z4 |!f! z3/2 A/ de | f z z2 | z4 |"^cresc." !fermata!B4 |!f! c4- |1 c z z2 :|2 %61
w: toi!|||Prends garde à|toi!||à|toi!|_|
w: |||||||||
 c2- c z |] %62
w: toi! _|
w: |
V:2
 z4 |: z4 | z4 | z4 | z4 | z4 | z4 | z4 | z4 | z4 | z4 | z4 | z4 | z4 | z4 | z4 | z4 | z4 | z4 | %19
w: |||||||||||||||||||
w: |||||||||||||||||||
[K:C]!pp!!pp! z2 EE | (3EEE EE | EE/E/ CC | CC CC | A z FF | (3FFF FF | DD/D/ DA | BG GB | c z z2 | %28
w: L’a- mour|est un oi- seau re-|bel- le que nul ne|peut ap- pri- voi-|ser, Et c’est|bien en vain qu’on l’ap-|pel- le s’il lui con-|vient de re- fu-|ser!|
w: Tout au-|tour de toi, vi- te,|vi- te, Il vient, s’en|va, puis il re-|vient, Tu crois|le te- nir, il t’é-|vi- te, Tu crois l’é-|vi- ter, il te|tient!|
 z4 | z4 | z4 | z4 | z4 | z4 | z4 |!f! z3/2 G/ EG | c z z2 | z4 | z4 |!f! z3/2 A/ FA | d z z2 | %41
w: |||||||Prends garde à|toi!|||Prends garde à|toi!|
w: |||||||||||||
 z4 | z4 | z4 |!p! G4 | G4 | G2 G2 | A2- A z | A4 | A4 | B4 | c!f! z/ G/ EG | c z z2 | z4 | z4 | %55
w: |||L’a-|mour|est en-|fant _|de|Bo-|hê-|me! Prends garde à|toi!|||
w: ||||||||||||||
!f! z3/2 A/ FA | d z z2 | z4 |"^cresc." !fermata!F4 |!f! E4- |1 E z z2 :|2 E2- E z |] %62
w: Prends garde à|toi!||à|toi!|_|toi! _|
w: |||||||
V:3
 z4 |: z4 | z4 | z4 | z4 | z4 | z4 | z4 | z4 | z4 | z4 | z4 | z4 | z4 | z4 | z4 | z4 | z4 | z4 | %19
w: |||||||||||||||||||
w: |||||||||||||||||||
[K:C]!pp! z2 CC | (3CCC CC | CC/C/ G,G, | G,G, G,G, | F, z DD | (3DDD DD | A,A,/A,/ A,F | FF FF | %27
w: L’a- mour|est un oi- seau re-|bel- le que nul ne|peut ap- pri- voi-|ser, Et c’est|bien en vain qu’on l’ap-|pel- le s’il lui con-|vient de re- fu-|
w: Tout au-|tour de toi, vi- te,|vi- te, Il vient, s’en|va, puis il re-|vient, Tu crois|le te- nir, il t’é-|vi- te, Tu crois l’é-|vi- ter, il te|
 E z z2 | z4 | z4 | z4 | z4 | z4 | z4 | z4 |!f! z3/2 G/ EG | C z z2 | z4 | z4 |!f! z3/2 A/ FA | %40
w: ser!||||||||Prends garde à|toi!|||Prends garde à|
w: tient!|||||||||||||
 D z z2 | z4 | z4 | z4 |!p! C4 | C4 | C2 C2 | C2- C z | C4 | C4 | C4 | C!f! z/ G/ EG | C z z2 | %53
w: toi!||||L’a-|mour|est en-|fant _|de|Bo-|hê-|me! Prends garde à|toi!|
w: |||||||||||||
 z4 | z4 |!f! z3/2 A/ FA | D z z2 | z4 |"^cresc." !fermata!G4 |!f! C4- |1 C z z2 :|2 C2- C z |] %62
w: ||Prends garde à|toi!||à|toi!|_|toi! _|
w: |||||||||

